X: 4552
T: Boston Life
R: jig
M: 6/8
K: Gmajor
|:G,B,D GBd|b3 bfa|gfg Bcd|c3 {d}cBc|
DFA {e}d^cd|fef a2g|1 {g}fef ABc|ed^c {e}dBG:|2 {g}fed bfa|g3 g3||
|:GBd gdB|Ace a2g|faf ABc|ed^c {e}dBG|
DGB {e}dBG|Ace a2g|{g}fed bfa|g3 g3:|

